;FLAVOR:Marlin
;TIME:2254
;Filament used: 1.06582m
;Layer height: 0.2
;MINX:117.698
;MINY:126.937
;MINZ:0.2
;MAXX:183.349
;MAXY:162.8
;MAXZ:13.2
;Generated with Cura_SteamEngine 4.12.1
M140 S50
M105
M190 S50
M104 S205
M105
M109 S205
M82 ;absolute extrusion mode
M201 X500.00 Y500.00 Z100.00 E5000.00 ;Setup machine max acceleration
M203 X500.00 Y500.00 Z10.00 E50.00 ;Setup machine max feedrate
M204 P500.00 R1000.00 T500.00 ;Setup Print/Retract/Travel acceleration
M205 X8.00 Y8.00 Z0.40 E5.00 ;Setup Jerk
M220 S100 ;Reset Feedrate
M221 S100 ;Reset Flowrate

G28 ;Home

G92 E0 ;Reset Extruder
G1 Z2.0 F3000 ;Move Z Axis up
G1 X10.1 Y20 Z0.28 F5000.0 ;Move to start position
G1 X10.1 Y200.0 Z0.28 F1500.0 E15 ;Draw the first line
G1 X10.4 Y200.0 Z0.28 F5000.0 ;Move to side a little
G1 X10.4 Y20 Z0.28 F1500.0 E30 ;Draw the second line
G92 E0 ;Reset Extruder
G1 Z2.0 F3000 ;Move Z Axis up

G92 E0
G92 E0
G1 F2700 E-5
;LAYER_COUNT:66
;LAYER:0
M107
G0 F6000 X121.382 Y133.953 Z0.2
;TYPE:SKIRT
G1 F2700 E0
G1 F1200 X121.981 Y133.438 E0.02627
G1 X122.629 Y132.987 E0.05253
G1 X123.188 Y132.67 E0.07391
G1 X123.454 Y132.533 E0.08386
G1 X124.173 Y132.207 E0.11012
G1 X125.054 Y131.92 E0.14093
G1 X125.345 Y131.844 E0.15094
G1 X125.535 Y131.797 E0.15745
G1 X126.017 Y131.684 E0.17391
G1 X126.916 Y131.479 E0.20458
G1 X128.351 Y131.164 E0.25345
G1 X129.695 Y130.879 E0.29914
G1 X130.98 Y130.613 E0.34279
G1 X132.273 Y130.356 E0.38663
G1 X133.909 Y130.041 E0.44205
G1 X135.331 Y129.777 E0.49015
G1 X136.751 Y129.522 E0.53814
G1 X138.076 Y129.29 E0.58288
G1 X139.511 Y129.049 E0.63127
G1 X141.247 Y128.77 E0.68975
G1 X142.318 Y128.602 E0.72581
G1 X143.808 Y128.379 E0.77592
G1 X145.368 Y128.158 E0.82832
G1 X146.381 Y128.02 E0.86233
G1 X147.774 Y127.841 E0.90904
G1 X149.019 Y127.691 E0.95075
G1 X150.161 Y127.563 E0.98897
G1 X151.419 Y127.436 E1.03102
G1 X152.54 Y127.335 E1.06846
G1 X153.512 Y127.259 E1.10089
G1 X154.68 Y127.18 E1.13982
G1 X156.299 Y127.081 E1.19377
G1 X156.828 Y127.053 E1.21139
G1 X157.617 Y127.051 E1.23763
G1 X157.825 Y127.072 E1.24459
G1 X158.335 Y127 E1.26172
G1 X158.74 Y126.974 E1.27521
G1 X159.156 Y126.96 E1.28906
G1 X160.304 Y126.94 E1.32725
G1 X161.132 Y126.937 E1.35479
G1 X161.911 Y126.946 E1.3807
G1 X162.44 Y126.958 E1.3983
G1 X163.346 Y126.989 E1.42845
G1 X163.665 Y127.003 E1.43907
G1 X164.395 Y127.042 E1.46338
G1 X165.266 Y127.099 E1.49242
G1 X166.032 Y127.162 E1.51798
G1 X166.816 Y127.237 E1.54417
G1 X167.496 Y127.314 E1.56693
G1 X168.154 Y127.397 E1.58899
G1 X168.856 Y127.499 E1.61259
G1 X169.601 Y127.62 E1.63769
G1 X170.261 Y127.74 E1.66
G1 X170.428 Y127.772 E1.66566
G1 X171.155 Y127.924 E1.69036
G1 X171.63 Y128.032 E1.70656
G1 X171.828 Y128.08 E1.71334
G1 X172.326 Y128.207 E1.73043
G1 X172.864 Y128.356 E1.749
G1 X173.245 Y128.467 E1.7622
G1 X173.701 Y128.61 E1.77809
G1 X173.91 Y128.679 E1.78541
G1 X174.313 Y128.818 E1.79959
G1 X174.513 Y128.89 E1.80666
G1 X174.931 Y129.047 E1.82151
G1 X175.226 Y129.165 E1.83208
G1 X175.654 Y129.346 E1.84754
G1 X175.891 Y129.451 E1.85616
G1 X176.265 Y129.624 E1.86986
G1 X176.546 Y129.761 E1.88026
G1 X176.872 Y129.928 E1.89245
G1 X177.118 Y130.059 E1.90171
G1 X177.367 Y130.198 E1.9112
G1 X177.699 Y130.395 E1.92404
G1 X178.099 Y130.649 E1.9398
G1 X178.307 Y130.788 E1.94812
G1 X178.586 Y130.983 E1.95944
G1 X178.781 Y131.126 E1.96748
G1 X179.052 Y131.334 E1.97885
G1 X179.25 Y131.493 E1.98729
G1 X179.598 Y131.79 E2.00251
G1 X179.755 Y131.932 E2.00955
G1 X179.986 Y132.149 E2.02009
G1 X180.145 Y132.305 E2.0275
G1 X180.351 Y132.515 E2.03728
G1 X180.489 Y132.661 E2.04397
G1 X180.795 Y133.005 E2.05928
G1 X180.941 Y133.179 E2.06683
G1 X181.286 Y133.622 E2.08551
G1 X181.414 Y133.799 E2.09277
G1 X181.786 Y134.363 E2.11525
G1 X181.986 Y134.697 E2.12819
G1 X182.443 Y135.583 E2.16135
G1 X182.584 Y135.906 E2.17307
G1 X182.862 Y136.645 E2.19933
G1 X182.996 Y137.11 E2.21543
G1 X183.086 Y137.465 E2.22761
G1 X183.241 Y138.239 E2.25387
G1 X183.302 Y138.782 E2.27204
G1 X183.328 Y139.119 E2.28328
G1 X183.349 Y139.908 E2.30953
G1 X183.309 Y140.53 E2.33026
G1 X183.274 Y140.865 E2.34147
G1 X183.063 Y142.026 E2.38071
G1 X182.982 Y142.336 E2.39137
G1 X182.708 Y143.183 E2.42098
G1 X182.596 Y143.472 E2.43129
G1 X182.224 Y144.289 E2.46115
G1 X182.077 Y144.568 E2.47163
G1 X181.662 Y145.264 E2.49859
G1 X181.477 Y145.541 E2.50967
G1 X181.171 Y145.951 E2.52668
G1 X181.335 Y146.218 E2.5371
G1 X181.679 Y146.929 E2.56337
G1 X181.948 Y147.672 E2.58966
G1 X182.141 Y148.437 E2.6159
G1 X182.256 Y149.219 E2.64219
G1 X182.291 Y150.008 E2.66845
G1 X182.246 Y150.796 E2.69471
G1 X182.109 Y151.634 E2.72295
G1 X182.067 Y151.825 E2.72945
G1 X181.859 Y152.587 E2.75572
G1 X181.574 Y153.324 E2.78201
G1 X181.217 Y154.028 E2.80826
G1 X180.79 Y154.692 E2.83452
G1 X180.298 Y155.31 E2.86079
G1 X179.747 Y155.875 E2.88704
G1 X179.141 Y156.381 E2.9133
G1 X178.486 Y156.824 E2.9396
G1 X177.791 Y157.198 E2.96585
G1 X177.264 Y157.424 E2.98492
G1 X176.941 Y157.549 E2.99644
G1 X176.062 Y157.831 E3.02714
G1 X175.722 Y157.917 E3.03881
G1 X175.215 Y158.036 E3.05613
G1 X174.278 Y158.247 E3.08807
G1 X172.932 Y158.545 E3.13392
G1 X171.592 Y158.831 E3.1795
G1 X170.191 Y159.117 E3.22706
G1 X168.77 Y159.4 E3.27525
G1 X167.395 Y159.665 E3.32182
G1 X165.944 Y159.935 E3.37091
G1 X164.516 Y160.193 E3.41917
G1 X163.062 Y160.445 E3.46825
G1 X161.674 Y160.679 E3.51507
G1 X160.25 Y160.91 E3.56305
G1 X158.854 Y161.128 E3.61005
G1 X157.471 Y161.335 E3.65656
G1 X156.094 Y161.532 E3.70282
G1 X154.775 Y161.713 E3.7471
G1 X153.462 Y161.882 E3.79114
G1 X152.209 Y162.034 E3.83312
G1 X150.986 Y162.17 E3.87404
G1 X149.811 Y162.29 E3.91333
G1 X148.67 Y162.394 E3.95143
G1 X147.62 Y162.476 E3.98646
G1 X146.446 Y162.556 E4.0256
G1 X145.372 Y162.623 E4.06139
G1 X144.342 Y162.68 E4.0957
G1 X143.364 Y162.726 E4.12827
G1 X142.448 Y162.761 E4.15876
G1 X141.567 Y162.785 E4.18807
G1 X140.736 Y162.798 E4.21571
G1 X140.298 Y162.8 E4.23028
G1 X139.515 Y162.796 E4.25632
G1 X139.081 Y162.789 E4.27076
G1 X138.29 Y162.768 E4.29708
G1 X137.473 Y162.736 E4.32427
G1 X136.665 Y162.694 E4.35118
G1 X135.861 Y162.641 E4.37798
G1 X135.092 Y162.578 E4.40364
G1 X134.321 Y162.505 E4.4294
G1 X133.68 Y162.434 E4.45085
G1 X132.811 Y162.323 E4.47999
G1 X132.061 Y162.213 E4.5052
G1 X131.486 Y162.118 E4.52459
G1 X130.779 Y161.988 E4.5485
G1 X130.088 Y161.847 E4.57195
G1 X129.918 Y161.81 E4.57774
G1 X129.4 Y161.691 E4.59542
G1 X129.226 Y161.649 E4.60137
G1 X128.726 Y161.522 E4.61853
G1 X128.511 Y161.464 E4.62593
G1 X128.033 Y161.328 E4.64246
G1 X127.848 Y161.273 E4.64888
G1 X127.389 Y161.13 E4.66487
G1 X127.177 Y161.061 E4.67229
G1 X126.737 Y160.91 E4.68776
G1 X126.486 Y160.819 E4.69664
G1 X126.067 Y160.659 E4.71156
G1 X125.832 Y160.564 E4.71999
G1 X125.434 Y160.397 E4.73434
G1 X125.152 Y160.273 E4.74459
G1 X124.775 Y160.097 E4.75843
G1 X124.531 Y159.978 E4.76746
G1 X124.18 Y159.799 E4.78056
G1 X123.876 Y159.635 E4.79205
G1 X123.645 Y159.504 E4.80088
G1 X123.408 Y159.364 E4.81004
G1 X123.19 Y159.23 E4.81855
G1 X122.905 Y159.046 E4.82983
G1 X122.698 Y158.906 E4.83814
G1 X122.424 Y158.712 E4.84931
G1 X122.227 Y158.566 E4.85747
G1 X121.978 Y158.374 E4.86792
G1 X121.793 Y158.225 E4.87583
G1 X121.502 Y157.978 E4.88852
G1 X121.33 Y157.825 E4.89618
G1 X121.016 Y157.53 E4.91051
G1 X120.857 Y157.372 E4.91796
G1 X120.646 Y157.153 E4.92808
G1 X120.498 Y156.994 E4.9353
G1 X120.167 Y156.615 E4.95204
G1 X120.033 Y156.451 E4.95908
G1 X119.765 Y156.104 E4.97366
G1 X119.645 Y155.939 E4.98045
G1 X119.272 Y155.376 E5.00291
G1 X119.072 Y155.044 E5.0158
G1 X118.567 Y154.053 E5.0528
G1 X118.423 Y153.712 E5.06511
G1 X118.153 Y152.97 E5.09137
G1 X118.046 Y152.585 E5.10466
G1 X117.96 Y152.244 E5.11636
G1 X117.806 Y151.47 E5.14261
G1 X117.748 Y150.964 E5.15955
G1 X117.721 Y150.629 E5.17072
G1 X117.698 Y149.839 E5.19701
G1 X117.736 Y149.214 E5.21784
G1 X117.77 Y148.879 E5.22904
G1 X117.975 Y147.728 E5.26792
G1 X118.053 Y147.424 E5.27836
G1 X118.343 Y146.524 E5.30981
G1 X118.461 Y146.222 E5.32059
G1 X118.812 Y145.45 E5.3488
G1 X118.964 Y145.159 E5.35972
G1 X119.409 Y144.411 E5.38867
G1 X119.597 Y144.132 E5.39986
G1 X119.98 Y143.622 E5.42107
G1 X119.823 Y143.351 E5.43149
G1 X119.498 Y142.631 E5.45776
G1 X119.247 Y141.882 E5.48403
G1 X119.073 Y141.112 E5.51029
G1 X118.978 Y140.328 E5.53656
G1 X118.959 Y139.783 E5.5547
G1 X118.959 Y139.604 E5.56065
G1 X118.999 Y138.815 E5.58692
G1 X119.118 Y138.035 E5.61317
G1 X119.316 Y137.27 E5.63945
G1 X119.59 Y136.53 E5.6657
G1 X119.938 Y135.821 E5.69196
G1 X120.356 Y135.15 E5.71826
G1 X120.839 Y134.526 E5.7445
G1 X121.382 Y133.953 E5.77076
G0 F6000 X121.775 Y134.134
G1 F1200 X122.37 Y133.646 E5.79635
G1 X123.012 Y133.223 E5.82193
G1 X123.371 Y133.025 E5.83556
G1 X123.637 Y132.888 E5.84551
G1 X124.338 Y132.572 E5.87109
G1 X125.155 Y132.307 E5.89966
G1 X125.627 Y132.186 E5.91586
G1 X126.106 Y132.074 E5.93222
G1 X127.002 Y131.87 E5.96279
G1 X128.434 Y131.555 E6.01155
G1 X129.776 Y131.27 E6.05718
G1 X131.058 Y131.005 E6.10073
G1 X132.349 Y130.749 E6.1445
G1 X133.982 Y130.434 E6.19982
G1 X135.402 Y130.171 E6.24785
G1 X136.82 Y129.916 E6.29577
G1 X138.142 Y129.685 E6.3404
G1 X139.574 Y129.444 E6.3887
G1 X141.309 Y129.165 E6.44715
G1 X142.377 Y128.997 E6.48311
G1 X143.864 Y128.775 E6.53311
G1 X145.423 Y128.554 E6.58549
G1 X146.432 Y128.417 E6.61935
G1 X147.821 Y128.238 E6.66593
G1 X149.064 Y128.089 E6.70757
G1 X150.202 Y127.961 E6.74566
G1 X151.455 Y127.834 E6.78755
G1 X152.571 Y127.734 E6.82482
G1 X153.539 Y127.658 E6.85711
G1 X154.705 Y127.579 E6.89598
G1 X156.32 Y127.48 E6.9498
G1 X156.849 Y127.452 E6.96742
G1 X157.618 Y127.452 E6.99299
G1 X157.841 Y127.475 E7.00045
G1 X158.182 Y127.418 E7.01195
G1 X158.755 Y127.374 E7.03106
G1 X159.164 Y127.36 E7.04467
G1 X160.306 Y127.34 E7.08266
G1 X161.128 Y127.337 E7.11
G1 X161.902 Y127.346 E7.13575
G1 X162.426 Y127.357 E7.15318
G1 X163.329 Y127.389 E7.18323
G1 X163.644 Y127.402 E7.19372
G1 X164.37 Y127.441 E7.2179
G1 X165.234 Y127.497 E7.2467
G1 X165.995 Y127.56 E7.27209
G1 X166.771 Y127.635 E7.29802
G1 X167.446 Y127.711 E7.32062
G1 X168.253 Y127.814 E7.34768
G1 X168.798 Y127.894 E7.366
G1 X169.678 Y128.039 E7.39566
G1 X170.189 Y128.133 E7.41294
G1 X170.923 Y128.283 E7.43786
G1 X171.542 Y128.422 E7.45896
G1 X171.73 Y128.467 E7.46539
G1 X172.228 Y128.594 E7.48248
G1 X172.806 Y128.755 E7.50244
G1 X173.125 Y128.849 E7.5135
G1 X173.581 Y128.992 E7.5294
G1 X173.78 Y129.057 E7.53636
G1 X174.183 Y129.196 E7.55054
G1 X174.79 Y129.422 E7.57208
G1 X175.07 Y129.533 E7.5821
G1 X175.498 Y129.714 E7.59755
G1 X175.723 Y129.814 E7.60574
G1 X176.097 Y129.987 E7.61945
G1 X176.364 Y130.117 E7.62933
G1 X176.69 Y130.284 E7.64151
G1 X176.923 Y130.409 E7.6503
G1 X177.172 Y130.548 E7.65979
G1 X177.487 Y130.734 E7.67195
G1 X177.877 Y130.981 E7.68731
G1 X178.085 Y131.12 E7.69563
G1 X178.349 Y131.306 E7.70637
G1 X178.544 Y131.449 E7.71441
G1 X178.801 Y131.646 E7.72518
G1 X178.999 Y131.805 E7.73363
G1 X179.33 Y132.087 E7.74809
G1 X179.487 Y132.229 E7.75513
G1 X179.706 Y132.435 E7.76513
G1 X179.865 Y132.591 E7.77254
G1 X180.06 Y132.79 E7.78181
G1 X180.198 Y132.936 E7.78849
G1 X180.489 Y133.262 E7.80302
G1 X180.635 Y133.436 E7.81058
G1 X180.962 Y133.857 E7.82831
G1 X181.09 Y134.034 E7.83557
G1 X181.443 Y134.568 E7.85687
G1 X181.643 Y134.902 E7.86981
G1 X182.076 Y135.743 E7.90128
G1 X182.217 Y136.066 E7.913
G1 X182.488 Y136.786 E7.93858
G1 X182.608 Y137.208 E7.95318
G1 X182.698 Y137.563 E7.96536
G1 X182.848 Y138.318 E7.99096
G1 X182.903 Y138.813 E8.00753
G1 X182.929 Y139.15 E8.01877
G1 X182.948 Y139.919 E8.04435
G1 X182.911 Y140.488 E8.06332
G1 X182.876 Y140.823 E8.07452
G1 X182.676 Y141.925 E8.11177
G1 X182.595 Y142.235 E8.12243
G1 X182.335 Y143.038 E8.1505
G1 X182.223 Y143.327 E8.16081
G1 X181.87 Y144.102 E8.18913
G1 X181.723 Y144.381 E8.19962
G1 X181.33 Y145.042 E8.2252
G1 X181.145 Y145.319 E8.23628
G1 X180.69 Y145.928 E8.26156
G1 X181.022 Y146.48 E8.28299
G1 X181.348 Y147.177 E8.30858
G1 X181.6 Y147.904 E8.33417
G1 X181.775 Y148.653 E8.35976
G1 X181.871 Y149.416 E8.38533
G1 X181.888 Y150.185 E8.41092
G1 X181.824 Y150.951 E8.43648
G1 X181.718 Y151.548 E8.45665
G1 X181.676 Y151.739 E8.46315
G1 X181.472 Y152.481 E8.48875
G1 X181.192 Y153.197 E8.51432
G1 X180.84 Y153.881 E8.5399
G1 X180.418 Y154.524 E8.56549
G1 X179.932 Y155.12 E8.59106
G1 X179.386 Y155.662 E8.61665
G1 X178.787 Y156.145 E8.64224
G1 X178.142 Y156.563 E8.66781
G1 X177.12 Y157.051 E8.70548
G1 X176.797 Y157.176 E8.717
G1 X175.963 Y157.443 E8.74612
G1 X175.63 Y157.527 E8.75754
G1 X175.127 Y157.646 E8.77474
G1 X174.192 Y157.857 E8.80662
G1 X172.848 Y158.153 E8.85239
G1 X171.512 Y158.439 E8.89783
G1 X170.113 Y158.725 E8.94532
G1 X168.694 Y159.007 E8.99344
G1 X167.322 Y159.272 E9.03992
G1 X165.873 Y159.542 E9.08894
G1 X164.447 Y159.798 E9.13713
G1 X162.996 Y160.051 E9.18612
G1 X161.61 Y160.285 E9.23287
G1 X160.188 Y160.515 E9.28078
G1 X158.795 Y160.733 E9.32768
G1 X157.414 Y160.939 E9.37412
G1 X156.039 Y161.136 E9.42032
G1 X154.724 Y161.317 E9.46447
G1 X153.413 Y161.485 E9.50843
G1 X152.165 Y161.636 E9.55024
G1 X150.945 Y161.772 E9.59107
G1 X149.775 Y161.892 E9.63018
G1 X148.639 Y161.996 E9.66813
G1 X147.593 Y162.077 E9.70302
G1 X146.421 Y162.157 E9.74209
G1 X145.349 Y162.223 E9.77781
G1 X144.323 Y162.281 E9.81199
G1 X143.348 Y162.327 E9.84446
G1 X142.437 Y162.361 E9.87478
G1 X141.561 Y162.385 E9.90393
G1 X140.734 Y162.398 E9.93144
G1 X140.299 Y162.4 E9.9459
G1 X139.52 Y162.396 E9.97181
G1 X139.091 Y162.389 E9.98608
G1 X138.306 Y162.368 E10.0122
G1 X137.494 Y162.336 E10.03923
G1 X136.691 Y162.295 E10.06597
G1 X135.894 Y162.242 E10.09254
G1 X135.129 Y162.18 E10.11807
G1 X134.365 Y162.107 E10.14359
G1 X133.603 Y162.022 E10.1691
G1 X132.868 Y161.927 E10.19375
G1 X132.126 Y161.818 E10.21869
G1 X131.407 Y161.698 E10.24293
G1 X130.852 Y161.595 E10.26171
G1 X130.169 Y161.455 E10.2849
G1 X130.007 Y161.42 E10.29041
G1 X129.489 Y161.301 E10.30809
G1 X128.824 Y161.134 E10.33089
G1 X128.621 Y161.08 E10.33788
G1 X128.143 Y160.944 E10.35441
G1 X127.508 Y160.748 E10.37651
G1 X127.307 Y160.682 E10.38355
G1 X126.867 Y160.531 E10.39902
G1 X126.629 Y160.445 E10.40744
G1 X126.21 Y160.285 E10.42236
G1 X125.987 Y160.196 E10.43034
G1 X125.589 Y160.029 E10.4447
G1 X125.322 Y159.91 E10.45442
G1 X124.945 Y159.734 E10.46826
G1 X124.713 Y159.621 E10.47684
G1 X124.362 Y159.442 E10.48995
G1 X124.074 Y159.287 E10.50082
G1 X123.843 Y159.156 E10.50966
G1 X123.618 Y159.023 E10.51835
G1 X123.4 Y158.889 E10.52686
G1 X123.129 Y158.715 E10.53757
G1 X122.922 Y158.575 E10.54588
G1 X122.662 Y158.39 E10.5565
G1 X122.465 Y158.244 E10.56465
G1 X122.229 Y158.062 E10.57456
G1 X122.044 Y157.913 E10.58247
G1 X121.768 Y157.679 E10.5945
G1 X121.596 Y157.526 E10.60216
G1 X121.298 Y157.246 E10.61576
G1 X121.139 Y157.088 E10.62321
G1 X120.938 Y156.881 E10.63281
G1 X120.79 Y156.722 E10.64003
G1 X120.477 Y156.362 E10.6559
G1 X120.343 Y156.198 E10.66294
G1 X120.088 Y155.868 E10.67681
G1 X119.968 Y155.703 E10.6836
G1 X119.614 Y155.169 E10.70491
G1 X119.414 Y154.837 E10.7178
G1 X118.936 Y153.898 E10.75285
G1 X118.792 Y153.557 E10.76516
G1 X118.434 Y152.488 E10.80265
G1 X118.348 Y152.147 E10.81435
G1 X118.199 Y151.392 E10.83995
G1 X118.147 Y150.931 E10.85538
G1 X118.12 Y150.596 E10.86655
G1 X118.098 Y149.828 E10.89211
G1 X118.134 Y149.255 E10.9112
G1 X118.168 Y148.92 E10.9224
G1 X118.362 Y147.828 E10.95929
G1 X118.44 Y147.524 E10.96973
G1 X118.715 Y146.67 E10.99957
G1 X118.833 Y146.368 E11.01036
G1 X119.167 Y145.635 E11.03715
G1 X119.319 Y145.344 E11.04807
G1 X119.741 Y144.635 E11.07551
G1 X119.929 Y144.356 E11.0867
G1 X120.386 Y143.747 E11.11202
G1 X120.46 Y143.658 E11.11587
G1 X120.133 Y143.079 E11.13799
G1 X119.827 Y142.373 E11.16358
G1 X119.596 Y141.64 E11.18914
G1 X119.442 Y140.886 E11.21474
G1 X119.359 Y139.783 E11.25153
G1 X119.359 Y139.604 E11.25748
G1 X119.399 Y138.836 E11.28306
G1 X119.518 Y138.076 E11.30865
G1 X119.716 Y137.333 E11.33422
G1 X119.99 Y136.614 E11.35981
G1 X120.337 Y135.928 E11.38538
G1 X120.753 Y135.281 E11.41097
G1 X121.234 Y134.681 E11.43654
G1 X121.775 Y134.134 E11.46213
G0 F6000 X122.167 Y134.32
G1 F1200 X122.757 Y133.861 E11.48699
